!!!!SEGMENT: pl-sa--79-a-ii-19--012_siwinski-andrzej--missa-pro-defunctis-pie-iesu-domine.krn
!!!cenid: 17xx:304
!!!COM: Siwiński, Andrzej
!!!COM-rismID: pe41011487
!!!CDT: <1725->1725
!!!CNT:
!!!OPR: Missa pro defunctis
!!!OTL: Pie Iesu Domine
!!!OMV: 012
!!!PDT: 1726
!!!AGN: Sacred; Mass
!!!SMS-siglum: PL-SA
!!!SMS-shelfmark: 79/A II 19
!!!SMS-shelfwork: 001-012 M
!!!NIFC-rismSourceID: 1001070177
!!!NIFC-rismChildID: 1001070177
!!!NIFC-islandoraID: none
!!!URL-pdf-islandora:
!!!URL-scan: https://bc.bdsandomierz.pl/dlibra/publication/1356/edition/1324/content @EN{Scan in the Sandomierz Diocese Digital Library} @PL{Skany w portalu Cyfrowa Biblioteka Diecezjalna w Sandomierzu}
!!!IIIF:
!!!ONB-nifc: Uwaga: części Mszy: Requiem, Kyrie, Dies Irae, Quantus tremor, Tuba mirrum, Mors, Quid sum miser, Rex tremende, Quaerens me, Iuste iudex, Oro supplex, Pie Iesu Domine, Domine Iesu Christe,Quam olim Abrahae, Hostias, Sanctus, Osanna, Benedictus, Agnus Dei
!!!AIN: 1 alto 3 empty 2 oboe 2 violn 1 vox
!!!key:
**kern	**fba	**kern	**kern	**kern	**text	**kern	**text	**kern	**text	**kern	**text	**kern	**kern
*part9	*	*part8	*part7	*part6	*part6	*part5	*part5	*part4	*part4	*part3	*part3	*part2	*part1
*staff9	*	*staff8	*staff7	*staff6	*staff6	*staff5	*staff5	*staff4	*staff4	*staff3	*staff3	*staff2	*staff1
*Iempty	*	*Ivioln	*Ivioln	*Iempty	*	*Iempty	*	*Ialto	*	*Ivox	*	*Ioboe	*Ioboe
*I"P9	*	*I"Violino 2do	*I"Violino 1mo	*I"P6	*	*I"P5	*	*I"Alto.	*	*I"Canto	*	*I"Hobois 2do	*I"Hautbo. 1mo
*I'Org.	*	*I'V-no II	*I'V-no I	*I'B.	*	*I'T.	*	*I'A.	*	*I'C.	*	*I'Ob.	*I'Ob. I
*clefF4	*	*clefG2	*clefG2	*clefF4	*	*clefC4	*	*clefC3	*	*clefC1	*	*clefG2	*clefG2
*k[b-e-]	*	*k[b-e-]	*k[b-e-]	*k[b-e-]	*	*k[b-e-]	*	*k[b-e-]	*	*k[b-e-]	*	*k[b-e-]	*k[b-e-]
*c:	*	*c:	*c:	*c:	*	*c:	*	*c:	*	*c:	*	*c:	*c:
*M6/8	*	*M6/8	*M6/8	*M6/8	*	*M6/8	*	*M6/8	*	*M6/8	*	*M6/8	*M6/8
=1	=1	=1	=1	=1	=1	=1	=1	=1	=1	=1	=1	=1	=1
!LO:SIC:o:s:=:v: brak nazwy partii (na stronie tytułowej "Baſso pro Organo")	!	!	!	!LO:SIC:o:s:=:v: brak nazwy partii (na stronie tytułowej "Baſso vocali")	!	!LO:SIC:o:s:=:v: brak nazwy partii (na stronie tytułowej "Tenore")	!	!	!	!	!	!	!
!	!	!LO:TX:a:t=P:problem=mixed beam	!	!	!	!	!	!	!	!	!	!	!
!LO:SIC:o:s:=:v:znaki na początku systemu.brak powtórzenia przy metrum	!	!	!LO:SIC:o:s:=:v:znaki na początku systemu.brak powtórzenia przy metrum	!	!	!	!	!LO:SIC:o:s:=:v:znaki na początku systemu.brak powtórzenia przy metrum	!	!	!	!	!LO:SIC:o:s:=:v:znaki na początku systemu.brak powtórzenia przy metrum
8.C/L	.	8e-/L	8cc\L	8.C/L	Pi-	8.e-\L	Pi-	4g\	Pi-	4ee-\	Pi-	4e-/	8cc\L
.	.	8ee-\	8.gg\	.	.	.	.	.	.	.	.	.	8ee-\
16D/L	.	.	.	16D/Jk	.	16d\Jk	.	.	.	.	.	.	.
16E-/	.	8cc\J	.	(16E-\LL	-e	8d-X\	-e	8g\	-e	8ee-\	-e	16g/LL	8cc\J
!	!	!	!LO:TX:a:t=P:♭above:problem	!	!	!	!	!	!	!	!	!	!
16F/JJ	.	.	16aa-\Jk	16F\JJ)	.	.	.	.	.	.	.	16a-X/JJ	.
4.G\	.	8dd\L	8.dd\L	4G\	Je-	4Bn\	Je-	4g\	Je-	4dd\	Je-	8bn\L	8dd\L
!	!	!LO:TX:a:t=P:♮above:problem	!	!	!	!	!	!	!	!	!	!	!LO:TX:a:t=P:♮above:problem
.	.	8bn\	.	.	.	.	.	.	.	.	.	8dd\	8bn\
.	.	.	16dd\K	.	.	.	.	.	.	.	.	.	.
.	.	8dd\J	8dd\J	8G\	-su	8B\	-su	8d\	-su	8dd\	-su	8b\J	8dd\J
!	!	!	!	!	!	!	!	!LO:LB:g=original	!	!	!	!	!
=2	=2	=2	=2	=2	=2	=2	=2	=2	=2	=2	=2	=2	=2
8c\L	.	8cc\	8ee-\	8c\L	Do-	4c\	Do-	(8e-\L	Do-	(8ee-\L	Do-	8cc\	8ee-\
8B-\	6	4cc\	4ff\	8.B-\J	.	.	.	8.f\J)	.	8.dd\J)	.	4cc\	4ff\
8A-X\J	7	.	.	.	.	8c\	-mi-	.	.	.	.	.	.
.	6	.	.	16A-X\	-mi-	.	.	16f\	-mi-	16cc\	-mi-	.	.
4G\	.	8bn\L	8gg\L	4G\	-ne	4d\	-ne	4g\	-ne	4bn\	-ne	8bn\L	8gg\L
.	.	8dd\	16gg\L	.	.	.	.	.	.	.	.	8dd\	16gg\L
!	!	!	!LO:TX:a:t=P:♭above:problem	!	!	!	!	!	!	!	!	!	!LO:TX:a:t=P:♭above:problem
.	.	.	16aa-\	.	.	.	.	.	.	.	.	.	16aa-X\
8r	.	8dd\J	16gg\	8r	.	8r	.	8r	.	8r	.	8dd\J	16gg\
.	.	.	16ff\JJ	.	.	.	.	.	.	.	.	.	16ff\JJ
!LO:LB:g=original	!	!	!	!	!	!	!	!	!	!	!	!	!
=3	=3	=3	=3	=3	=3	=3	=3	=3	=3	=3	=3	=3	=3
8c\L	.	4.cc\	4ee-\	8c\L	Do-	4c\	do-	4g\	do-	4ee-\	do-	4.cc\	4.ee-M\
8G\	6	.	.	8G\J	.	.	.	.	.	.	.	.	.
!	!	!	!LO:TX:a:t=P:♭above:problem	!	!	!	!	!	!	!	!	!	!
8A-X\J	5	.	8aa-\	8A-X\	-na	8c\	-na	8a-X\	-na	8ee-\	-na	.	.
!	!	!	!	!	!	!	!	!	!	!	!	!LO:TX:a:t=P:♭above:problem	!
8B-\L	.	4.bn\	4dd\	8B-\L	e-	4B-\	e-	4f\	e-	4dd\	e-	4.b-X\	4.ddm\
8F\	6	.	.	(8F\J	.	.	.	.	.	.	.	.	.
8G\J	5	.	8gg\	8G\)	-is	8B-\	-is	8g\	-is	8dd\	-is	.	.
=4	=4	=4	=4	=4	=4	=4	=4	=4	=4	=4	=4	=4	=4
8A-X\L	.	4.a-X/	4cc\	8A-X\L	Re-	4.A-X\	Re-	(4e-\	Re-	4.ccM\	Re-	4.a-X/	4.ccM\
8E-\	6	.	.	8E-\	.	.	.	.	.	.	.	.	.
8F\J	5	.	8ff\	8F\J	.	.	.	8f\)	.	.	.	.	.
4G\	.	8dd\	8gg\	4G\	.	4d\	.	4g\	.	(16dd\LL	.	8bn/	(16dd\LL
.	.	.	.	.	.	.	.	.	.	16ee-\JJ)	.	.	16ee-\JJ)
.	.	4b-\	4gg\	.	.	.	.	.	.	8.bn\	.	4g/	4ddm\
8GG/	4	.	.	8GG/	-qui-	8d\	-qui-	8g\	-qui-	.	.	.	.
.	3	.	.	.	.	.	.	.	.	16bn\	-qui-	.	.
!	!	!	!	!	!	!	!	!	!	!	!	!	!LO:LB:g=original
=5	=5	=5	=5	=5	=5	=5	=5	=5	=5	=5	=5	=5	=5
4.C/	.	4cc\	4gg\	4C/	-em	4c\	-em	4g\	-em	8cc\	-em	4e-/	4cc\
.	.	.	.	.	.	.	.	.	.	8g/	Pi-	.	.
.	.	8r	8r	8r	.	2r	.	2r	.	8cc\	-e	8r	8r
!	!	!	!	!	!	!	!	!	!	!LO:LB:g=original	!	!	!
8GG/L	6	4.r	4.r	4.r	.	.	.	.	.	(8bn\L	Je-	4.r	4.r
8AAn/	6	.	.	.	.	.	.	.	.	8cc\J)	.	.	.
8BBn/J	6	.	.	.	.	.	.	.	.	8dd\	-su	.	.
=6	=6	=6	=6	=6	=6	=6-	=6	=6	=6	=6	=6	=6	=6
!	!	!	!LO:TX:a:t=7	!	!	!	!	!	!	!	!	!	!
!	!	!LO:N:vis=00	!LO:N:vis=00	!LO:N:vis=00	!	!LO:N:vis=00	!	!	!	!	!	!LO:N:vis=00	!LO:N:vis=00
8C/L	6	0.r	0.r	0.r	.	0.r	.	4.r	.	(8ee-\L	Do-	0.r	0.r
8BBn/	7	.	.	.	.	.	.	.	.	8.dd\J)	.	.	.
8AA-X/J	6	.	.	.	.	.	.	.	.	.	.	.	.
.	.	.	.	.	.	.	.	.	.	16cc\	-mi-	.	.
4GG/	.	.	.	.	.	.	.	8r	.	4bn\	-ne	.	.
.	.	.	.	.	.	.	.	8g\	do-	.	.	.	.
8r	.	.	.	.	.	.	.	8g\	-na	8r	.	.	.
=7	=7	=7	=7	=7	=7	=7	=7	=7	=7	=7	=7	=7	=7
8r	.	.	.	.	.	.	.	4a-X\	e-	8r	.	.	.
8F\L	.	.	.	.	.	.	.	.	.	8ff\	do-	.	.
8D\J	.	.	.	.	.	.	.	8a-\	-is	8ff\	-na	.	.
4BB-/	5_	.	.	.	.	.	.	8r	.	4dd\	e-	.	.
.	.	.	.	.	.	.	.	8f\	do-	.	.	.	.
8BB-/	x	.	.	.	.	.	.	8f\	-na	8dd\	-is	.	.
=8	=8	=8	=8	=8	=8	=8	=8	=8	=8	=8	=8	=8	=8
8r	.	.	.	.	.	.	.	4g\	e-	8r	.	.	.
*	*	*	*	*	*	*	*	*	*	*	*ij	*	*
8E-\L	.	.	.	.	.	.	.	.	.	8ee-\	do-	.	.
8C\J	.	.	.	.	.	.	.	8g\	-is	8ee-\	-na	.	.
4AA-X/	5_	.	.	.	.	.	.	8r	.	4cc\	e-	.	.
.	.	.	.	.	.	.	.	8e-\	do-	.	.	.	.
8AA-/	x	.	.	.	.	.	.	8e-\	-na	8cc\	-is	.	.
*	*	*	*	*	*	*	*	*	*	*	*Xij	*	*
=9	=9	=9	=9	=9	=9	=9	=9	=9	=9	=9	=9	=9	=9
4BB-/	.	.	.	.	.	.	.	4f\	e-	4dd\	e-	.	.
8BBn/	6	.	.	.	.	.	.	8g\	-is	8dd\	-is	.	.
!LO:TX:a:t=P:problem=mixed beam	!	!	!	!	!	!	!	!	!	!	!	!	!
8C/L	.	.	.	.	.	.	.	(16f\LL	Re-	(16ee-\LL	Re-	.	.
.	.	.	.	.	.	.	.	16e-\JJ)	.	16cc\JJ)	.	.	.
!	!	!	!	!	!	!	!	!LO:LB:g=original	!	!	!	!	!
8G\	.	.	.	.	.	.	.	8.d\	.	8.bn\	.	.	.
8GG/J	.	.	.	.	.	.	.	.	.	.	.	.	.
.	.	.	.	.	.	.	.	16c/	-qui-	16b\	-qui-	.	.
=10	=10	=10	=10	=10	=10	=10	=10	=10	=10	=10	=10	=10-	=10-
!	!	!LO:N:vis=0	!LO:N:vis=0	!LO:N:vis=0	!	!LO:N:vis=0	!	!	!	!	!	!	!
4C/	.	1.r	1.r	1.r	.	1.r	.	4c/	-em	4cc\	-em	8r	8r
.	.	.	.	.	.	.	.	.	.	.	.	8ee-\L	8gg\L
8r	.	.	.	.	.	.	.	2r	.	2r	.	8ee-\J	8gg\J
8r	.	.	.	.	.	.	.	.	.	.	.	4ff\	4aa-X\
8F\L	.	.	.	.	.	.	.	.	.	.	.	.	.
8D\J	.	.	.	.	.	.	.	.	.	.	.	8ff\	8aa-\
=11	=11	=11	=11	=11	=11	=11	=11	=11	=11	=11-	=11	=11	=11
!	!	!	!	!	!	!	!	!LO:N:vis=0	!	!LO:N:vis=0	!	!	!
4BB-/	5_	.	.	.	.	.	.	1.r	.	1.r	.	8r	8r
.	.	.	.	.	.	.	.	.	.	.	.	8dd\L	8ff\L
8BB-/	.	.	.	.	.	.	.	.	.	.	.	8dd\J	8ff\J
!LO:LB:g=original	!	!	!	!	!	!	!	!	!	!	!	!	!
8r	x	.	.	.	.	.	.	.	.	.	.	4ee-\	4gg\
8E-\L	.	.	.	.	.	.	.	.	.	.	.	.	.
8C\J	.	.	.	.	.	.	.	.	.	.	.	8ee-\	8gg\
=12	=12	=12	=12	=12	=12	=12	=12	=12	=12	=12	=12	=12	=12
4AA-X/	5_	2.r	2.r	2.r	.	2.r	.	.	.	.	.	8r	8r
.	.	.	.	.	.	.	.	.	.	.	.	8cc\L	8ee-\L
8AA-/	.	.	.	.	.	.	.	.	.	.	.	8cc\J	8ee-\J
4BB-/	5	.	.	.	.	.	.	.	.	.	.	4dd\	4ff\
8BBn/	6	.	.	.	.	.	.	.	.	.	.	8dd\	8gg\
!	!	!	!LO:LB:g=original	!	!	!	!	!	!	!	!	!LO:LB:g=original	!
=13	=13	=13	=13	=13	=13	=13	=13	=13	=13	=13	=13	=13	=13
!LO:TX:a:t=P:problem=mixed beam	!	!	!	!	!	!	!	!	!	!	!	!	!
8C\L	.	4.r	4.r	4.r	.	4.r	.	4.r	.	4.r	.	8cc\	16ff\LL
.	.	.	.	.	.	.	.	.	.	.	.	.	16ee-\JJ
8G\	.	.	.	.	.	.	.	.	.	.	.	4g/	4dd\
.	4	.	.	.	.	.	.	.	.	.	.	.	.
8GG/J	3	.	.	.	.	.	.	.	.	.	.	.	.
!	!	!LO:TX:a:t=P:problem=mixed beam	!	!	!	!	!	!	!	!	!	!	!
*	*	*	*	*	*	*	*ij	*	*	*	*	*	*
8.C/L	.	8e-/L	8cc\L	(8.C/L	Pi-	(8.e-\L	Pi-	4g\	Pi-	4ee-\	Pi-	4e-/	8cc\L
.	.	8ee-\	8.gg\	.	.	.	.	.	.	.	.	.	8ee-\
16D/L	.	.	.	16D/Jk)	.	16d\Jk)	.	.	.	.	.	.	.
16E-/	.	8cc\J	.	(16E-\LL	-e	8d\	-e	8g\	-e	8ee-\	-e	16g/LL	8cc\J
!	!	!	!LO:TX:a:t=P:♭above:problem	!	!	!	!	!	!	!	!	!	!
16F/JJ	.	.	16aa-\Jk	16F\JJ)	.	.	.	.	.	.	.	16a-X/JJ	.
=14	=14	=14	=14	=14	=14	=14	=14	=14	=14	=14	=14	=14	=14
4.G\	.	8dd\L	8.dd\L	4G\	Je-	4B-\	Je-	4g\	Je-	4dd\	Je-	8bn\L	8dd\L
!	!	!	!	!	!	!	!	!	!	!	!	!	!LO:TX:a:t=P:♮above:problem
.	.	8b-\	.	.	.	.	.	.	.	.	.	8dd\	8bn\
.	.	.	16dd\K	.	.	.	.	.	.	.	.	.	.
.	.	8dd\J	8dd\J	8G\	-su	8B-\	-su	8g\	-su	8dd\	-su	8b\J	8dd\J
!	!	!	!	!LO:LB:g=original	!	!	!	!	!	!	!	!	!
8c\L	.	8cc\	8ee-\	8c\L	Do-	4c\	Do-	(8e-\L	Do-	(8ee-\L	Do-	8cc\	8ee-\
8B-\	6	4cc\	4ff\	(8.B-\J	.	.	.	8.f\J)	.	8.dd\J)	.	4cc\	4ff\
8A-X\J	7	.	.	.	.	8c\	-mi-	.	.	.	.	.	.
.	6	.	.	16A-X\)	-mi-	.	.	16f\	-mi-	16cc\	-mi-	.	.
!	!	!	!	!	!	!	!	!	!	!LO:LB:g=original	!	!	!
=15	=15	=15	=15	=15	=15	=15	=15	=15	=15	=15	=15	=15	=15
4G\	.	8bn\L	8gg\L	4G\	-ne	4d\	-ne	4g\	-ne	4b-\	-ne	8bn\L	8gg\L
.	.	8dd\	16gg\L	.	.	.	.	.	.	.	.	8dd\	16gg\L
!	!	!	!LO:TX:a:t=P:♭above:problem	!	!	!	!	!	!	!	!	!	!
.	.	.	16aa-\	.	.	.	.	.	.	.	.	.	16aa-X\
8r	.	8dd\J	16gg\	8r	.	8r	.	8r	.	8r	.	8dd\J	16gg\
.	.	.	16ff\JJ	.	.	.	.	.	.	.	.	.	16ff\JJ
!	!	!LO:LB:g=original	!	!	!	!LO:LB:g=original	!	!	!	!	!	!LO:TX:a:t=P:♮above:problem	!
8c\L	.	4.cc\	4ee-\	(8c\L	Do-	4c\	do-	4g\	do-	4ee-\	do-	4.cc\	4.ee-M\
8G\	6	.	.	8G\J)	.	.	.	.	.	.	.	.	.
!	!	!	!LO:TX:a:t=P:♭above:problem	!	!	!	!	!	!	!	!	!	!
8A-X\J	5	.	8aa-\	8A-X\	-na	8c\	-na	8a-X\	-na	8ee-\	-na	.	.
=16	=16	=16	=16	=16	=16	=16	=16	=16	=16	=16	=16	=16	=16
8B-\L	.	4.b-X\	4dd\	(8B-\L	e-	4B-\	e-	4f\	e-	4dd\	e-	4.b-X/	4.ddm\
8F\	6	.	.	8F\J)	.	.	.	.	.	.	.	.	.
8G\J	5	.	8gg\	8G\	-is	8B-\	-is	8g\	-is	8dd\	-is	.	.
8A-X\L	.	4.a-X/	4cc\	(8A-X\L	Re-	4.A-X\	Re-	(4e-\	Re-	(4.cc\	Re-	4.a-X/	4.ccM\
8E-\	6	.	.	8E-\	.	.	.	.	.	.	.	.	.
8F\J	5	.	8ff\	8F\J)	.	.	.	8f\)	.	.	.	.	.
=17	=17	=17	=17	=17	=17	=17	=17	=17	=17	=17	=17	=17	=17
4G\	4	8dd\	8gg\	4G\	.	8d\	.	4g\	.	16dd\LL)	.	8bn/	(16dd\LL
.	3	.	.	.	.	.	.	.	.	16ee-\JJ	.	.	16ee-\JJ)
!	!	!LO:TX:a:t=P:♮above:problem	!	!	!	!	!	!	!	!	!	!	!
.	.	4bn\	4gg\	.	.	8d\	-qui-	.	.	8.bn\	.	4g/	4ddm\
8GG/	.	.	.	8GG/	-qui-	4c\	-em	8g\	-qui-	.	.	.	.
.	.	.	.	.	.	.	.	.	.	16b\	-qui-	.	.
!	!	!	!	!	!	!	!	!	!	!	!	!LO:TX:a:t=P:problem=mixed beam	!
8C/	.	8cc\L	8gg\L	4C/	-em	.	.	4g\	-em	4cc\	-em	8e-/L	8cc\L
!	!	!	!	!	!	!	!	!	!	!	!	!LO:TX:a:t=P:♮above:problem	!
4G\	.	8bn\	8gg\	.	.	4r	.	.	.	.	.	8bn\	8gg\
.	.	8b\J	8dd\J	8r	.	.	.	8r	.	8r	.	8b\J	8dd\J
*	*	*	*	*	*	*	*Xij	*	*	*	*	*	*
!	!	!	!	!	!	!	!	!	!	!	!	!	!LO:LB:g=original
=18	=18	=18	=18	=18	=18	=18	=18	=18	=18	=18	=18	=18	=18
8c\L	.	4.cc\	4ee-\	(8c\L	Do-	4c\	do-	4g\	do-	4ee-\	do-	4.cc\	4.ee-M\
8G\	6	.	.	8G\J)	.	.	.	.	.	.	.	.	.
8A-X\J	5	.	8aa\	8A-X\	-na	8c\	-na	8a-X\	-na	8ee-\	-na	.	.
8B-\L	.	4.b-X\	4dd\	8B-\L	e-	4B-\	e-	4f\	e-	4dd\	e-	4.b-X\	4.ddm\
8F\	6	.	.	8F\J	.	.	.	.	.	.	.	.	.
8G\J	5	.	8gg\	8G\	-is	8B-\	-is	8g\	-is	8dd\	-is	.	.
!LO:LB:g=original	!	!	!	!	!	!	!	!LO:LB:g=original	!	!	!	!	!
=19	=19	=19	=19	=19	=19	=19	=19	=19	=19	=19	=19	=19	=19
8A-X\L	.	4.a-X/	4cc\	8A-X\L	Re-	4.A-X\	Re-	(4e-\	Re-	4.cc\	Re-	4.a-X/	4.ccM\
8E-\	6	.	.	(8E-\	.	.	.	.	.	.	.	.	.
8F\J	5	.	8ff\	8F\J)	.	.	.	8f\)	.	.	.	.	.
4G\	4	8dd\	8gg\	4G\	.	4d\	.	4g\	.	(16dd\LL	.	16bn\	(16dd\LL
.	3	.	.	.	.	.	.	.	.	16ee-\JJ)	.	16g/	16ee-\JJ)
!	!	!LO:TX:a:t=P:♮above:problem	!	!	!	!	!	!	!	!	!	!	!
.	.	4bn\	4gg\	.	.	.	.	.	.	8.bn\	.	4en/	4ddm\
8GG/	.	.	.	8GG/	-qui-	8d\	-qui-	8g\	-qui-	.	.	.	.
.	.	.	.	.	.	.	.	.	.	16b\	-qui-	.	.
!	!	!	!	!	!	!	!	!	!	!	!	!LO:LB:g=original	!
=20	=20	=20	=20	=20	=20	=20	=20	=20	=20	=20	=20	=20	=20
4C/	.	4cc\	4gg\	4C/	-em	4c\	-em	4g\	-em	4cc\	-em	4.r	4cc\
8r	.	8r	8r	8r	.	8r	.	8r	.	8r	.	.	8r
!LO:TX:b:t=amen	!	!	!	!	!	!	!	!	!	!	!	!	!LO:TX:b:t=amen
!LO:TX:a:t=tarde	!	!	!LO:TX:b:t=tarde	!LO:TX:a:t=tarde	!	!	!	!LO:TX:b:t=tarde	!	!LO:TX:a:t=tarde	!	!	!LO:TX:a:t=tarde
!	!	!	!LO:TX:a:t=P:♭above:problem	!	!	!	!	!	!	!	!	!	!
4.F\	.	4.ff\	4.aa-\	4.F\	a-	4.f\	a-	4.a-X\	A-	4.cc\	A-	4a-X/	4cc\
.	.	.	.	.	.	.	.	.	.	.	.	8a-/	8cc\
=21	=21	=21	=21	=21	=21	=21	=21	=21	=21	=21	=21	=21	=21
!	!	!	!LO:TX:b:t=amen	!	!	!	!	!	!	!	!	!	!
!LO:TX:a:t=tutti	!	!LO:TX:b:t=tarde	!	!	!	!LO:TX:b:t=tarde	!	!	!	!	!	!	!
2.C/	.	2.een\	2.gg\	2.C/	-men	2.e-\	-men	2.g\	-men	2.cc\	-men	2.g;;/	2.cc\
==	==	==:||	==	==	==	==	==	==	==	==	==	==	==
*-	*-	*-	*-	*-	*-	*-	*-	*-	*-	*-	*-	*-	*-
!!!system-decoration: [(s1,s2)][(s3,s4,s5,s6)][(s7,s8)]s9
!!!EED: Leszek Kubiak
!!!EEV: 2020-12-02
!!!ENC: Berenika Jozajtis
!!!END: 2020-05-01
!!!YEC: Copyright 2022 Narodowy Instytut Fryderyka Chopina (https://polishscores.org)
!!!YEM: License CC-BY-4.0 (https://creativecommons.org/licenses/by/4.0)
